X: 21
T: Allistrum's March (The Gloaming)
R: jig
M: 6/8
L: 1/8
K: Dmaj
  "D" FEE FDD | FAd "G" dBA | "D" FEE FDD | FAd "G" B2A :|
|: "D" d2f "Em/B" e2f | "D" ded d/B/AF | "D" d2f "Em/B" e2f | "D" ded d/B/AF :|
|: "Em" B2A B2F | B2A B2F | "Em"BdB BcF |1 "Em" BdB "D" BcF :|2 "Em" B/c/dc "G" B2A || 
|: "D" Fdd fee | fed "G"B2A | "D"Fdd fee | fed "G" B2A :|



